proprietary/assets/icons/nederland-en-politiek/koets.svg

<svg height="64" viewBox="0 0 64 64" width="64" xmlns="http://www.w3.org/2000/svg"><path d="m0 0h64v64h-64z" fill="none"/><path d="m10.5 35c-5.2467 0-9.5 4.2533-9.5 9.5s4.2533 9.5 9.5 9.5 9.5-4.2533 9.5-9.5-4.2533-9.5-9.5-9.5zm0 15.1c-3.0928 0-5.6-2.5072-5.6-5.6s2.5072-5.6 5.6-5.6 5.6 2.5072 5.6 5.6-2.5072 5.6-5.6 5.6z"/><path d="m55 38c-4.4183 0-8 3.5817-8 8s3.5817 8 8 8 8-3.5817 8-8-3.5817-8-8-8zm0 12.1c-2.2644 0-4.1-1.8356-4.1-4.1s1.8356-4.1 4.1-4.1 4.1 1.8356 4.1 4.1c0 2.2643-1.8356 4.1-4.1 4.1z"/><path d="m63 36-3-13h-8.6802c-.4744 2.0482-1.069 3.7399-1.8245 4.7714-.2376.3244-.5578.2309-.6179.1905l.0368-4.3319c.5768-.4386 1.0858-1.2244 1.0858-2.13 0-.9109-.3937-2.1318-.9761-2.8651.2915-.3041.4761-.6923.4761-.9977 0-.3187-.2023-.4764-.5163-.5565.0024-.028.0163-.0521.0163-.0807 0-.5523-.4477-1-1-1s-1 .4477-1 1c0 .0286.0139.0527.0163.0807-.314.0801-.5163.2379-.5163.5565 0 .112.0312.2364.0765.3628h-6.0612c-1.0001-.7592-1.9261-1.856-2.6758-3.0013-2.3824-3.6399-1.5093-5.9334-4.347-6.0016.1072-.2778.1741-.5526.1741-.7972 0-.8406-.6932-1.0956-1.6728-1.1701.0005-.0105.0062-.0192.0062-.0298 0-.5523-.4477-1-1-1s-1 .4477-1 1c0 .0106.0057.0193.006.0298-.9795.0745-1.6727.3296-1.6727 1.1702 0 .2448.067.5196.1743.7974-2.8287.071-1.9761 2.3795-4.348 6.0026-.7495 1.1448-1.6752 2.2411-2.6749 3h-6.0612c.0453-.1264.0765-.2508.0765-.3628 0-.3187-.2023-.4764-.5163-.5565.0024-.028.0163-.0521.0163-.0807 0-.5523-.4477-1-1-1s-1 .4477-1 1c0 .0286.0139.0527.0163.0807-.314.0801-.5163.2379-.5163.5565 0 .3054.1846.6936.4761.9977-.5824.7333-.9761 1.9542-.9761 2.8651 0 .923.4047 1.7202 1 2.1533v2.3467c0 .5522.4477 1 1 1 .2718 0 .5168-.1102.697-.2861.1652 1.4619.3666 2.8357.6084 4.1204-1.5044-.5324-3.1174-.8343-4.8054-.8343-.5813 0-1.1519.0422-1.7146.1097-.5229-1.8003-2.0104-3.1097-3.7854-3.1097-2.2092 0-4 2.0147-4 4.5 0 1.7505.8981 3.2498 2.1958 3.9932 1.9946-1.6195 4.5347-2.5932 7.3042-2.5932 6.1091 0 11.1039 4.7257 11.5555 10.7192 2.3418 1.6091 5.2816 2.3808 8.9445 2.3808 4.6344 0 8.3932-1.1576 11.4286-4.5715 4.5286-5.0946 7.613-5.4285 12.5714-5.4285zm-39-5c-2.7614 0-5-2.2386-5-5v-4h5zm11 0h-8c0-5.9631 0 .7219 0-8.9725.0071-.0095.0155-.018.0226-.0275.9127-1.2078 2.3469-2 3.9774-2s3.0646.7922 3.9774 2c.0071.0095.0155.0179.0226.0275zm8-5c0 2.7614-2.2386 5-5 5v-9h5z"/></svg>

<?xml version="1.0" encoding="utf-8"?>
<!-- Generator: Adobe Illustrator 18.1.1, SVG Export Plug-In . SVG Version: 6.00 Build 0)  -->
<svg version="1.2" baseProfile="tiny" xmlns="http://www.w3.org/2000/svg" xmlns:xlink="http://www.w3.org/1999/xlink" x="0px"
	 y="0px" width="64px" height="64px" viewBox="0 0 64 64" xml:space="preserve">
<g id="Box">
	<rect fill="none" width="64" height="64"/>
</g>
<g id="Icon">
	<g>
		<path d="M10.5,35C5.2533,35,1,39.2533,1,44.5S5.2533,54,10.5,54s9.5-4.2533,9.5-9.5S15.7467,35,10.5,35z M10.5,50.1
			c-3.0928,0-5.6-2.5072-5.6-5.6c0-3.0928,2.5072-5.6,5.6-5.6s5.6,2.5072,5.6,5.6C16.1,47.5928,13.5928,50.1,10.5,50.1z"/>
		<path d="M55,38c-4.4183,0-8,3.5817-8,8s3.5817,8,8,8s8-3.5817,8-8S59.4183,38,55,38z M55,50.1c-2.2644,0-4.1-1.8356-4.1-4.1
			c0-2.2644,1.8356-4.1,4.1-4.1s4.1,1.8356,4.1,4.1C59.1,48.2643,57.2644,50.1,55,50.1z"/>
		<path d="M63,36l-3-13h-8.6802c-0.4744,2.0482-1.069,3.7399-1.8245,4.7714c-0.2376,0.3244-0.5578,0.2309-0.6179,0.1905
			l0.0368-4.3319C49.491,23.1914,50,22.4056,50,21.5c0-0.9109-0.3937-2.1318-0.9761-2.8651
			c0.2915-0.3041,0.4761-0.6923,0.4761-0.9977c0-0.3187-0.2023-0.4764-0.5163-0.5565C48.9861,17.0527,49,17.0286,49,17
			c0-0.5523-0.4477-1-1-1s-1,0.4477-1,1c0,0.0286,0.0139,0.0527,0.0163,0.0807c-0.314,0.0801-0.5163,0.2379-0.5163,0.5565
			c0,0.112,0.0312,0.2364,0.0765,0.3628h-6.0612c-1.0001-0.7592-1.9261-1.856-2.6758-3.0013
			c-2.3824-3.6399-1.5093-5.9334-4.347-6.0016c0.1072-0.2778,0.1741-0.5526,0.1741-0.7972c0-0.8406-0.6932-1.0956-1.6728-1.1701
			C31.9943,7.0193,32,7.0106,32,7c0-0.5523-0.4477-1-1-1s-1,0.4477-1,1c0,0.0106,0.0057,0.0193,0.006,0.0298
			C29.0265,7.1043,28.3333,7.3594,28.3333,8.2c0,0.2448,0.067,0.5196,0.1743,0.7974c-2.8287,0.071-1.9761,2.3795-4.348,6.0026
			c-0.7495,1.1448-1.6752,2.2411-2.6749,3h-6.0612c0.0453-0.1264,0.0765-0.2508,0.0765-0.3628c0-0.3187-0.2023-0.4764-0.5163-0.5565
			C14.9861,17.0527,15,17.0286,15,17c0-0.5523-0.4477-1-1-1s-1,0.4477-1,1c0,0.0286,0.0139,0.0527,0.0163,0.0807
			c-0.314,0.0801-0.5163,0.2379-0.5163,0.5565c0,0.3054,0.1846,0.6936,0.4761,0.9977C12.3937,19.3682,12,20.5891,12,21.5
			c0,0.923,0.4047,1.7202,1,2.1533V26c0,0.5522,0.4477,1,1,1c0.2718,0,0.5168-0.1102,0.697-0.2861
			c0.1652,1.4619,0.3666,2.8357,0.6084,4.1204C13.801,30.3019,12.188,30,10.5,30c-0.5813,0-1.1519,0.0422-1.7146,0.1097
			C8.2625,28.3094,6.775,27,5,27c-2.2092,0-4,2.0147-4,4.5c0,1.7505,0.8981,3.2498,2.1958,3.9932
			C5.1904,33.8737,7.7305,32.9,10.5,32.9c6.1091,0,11.1039,4.7257,11.5555,10.7192C24.3973,45.2283,27.3371,46,31,46
			c4.6344,0,8.3932-1.1576,11.4286-4.5715C46.9572,36.3339,50.0416,36,55,36H63z M24,31c-2.7614,0-5-2.2386-5-5v-4h5V31z M35,31h-8
			c0-5.9631,0,0.7219,0-8.9725c0.0071-0.0095,0.0155-0.018,0.0226-0.0275c0.9127-1.2078,2.3469-2,3.9774-2s3.0646,0.7922,3.9774,2
			c0.0071,0.0095,0.0155,0.0179,0.0226,0.0275C35,31.4672,35,27.7464,35,31z M43,26c0,2.7614-2.2386,5-5,5v-9h5V26z"/>
	</g>
</g>
</svg>
